SVG_Azure_Grouped/Compute/Kubernetes GitOps.svg

<?xml version="1.0" encoding="UTF-8" standalone="no"?>
<!-- Generated by Microsoft Visio, SVG Export Kubernetes GitOps.svg Page-1 -->

<svg
   xmlns:dc="http://purl.org/dc/elements/1.1/"
   xmlns:cc="http://creativecommons.org/ns#"
   xmlns:rdf="http://www.w3.org/1999/02/22-rdf-syntax-ns#"
   xmlns:svg="http://www.w3.org/2000/svg"
   xmlns="http://www.w3.org/2000/svg"
   xmlns:sodipodi="http://sodipodi.sourceforge.net/DTD/sodipodi-0.dtd"
   xmlns:inkscape="http://www.inkscape.org/namespaces/inkscape"
   width="0.79073405in"
   height="0.74866533in"
   viewBox="0 0 56.933162 53.903851"
   xml:space="preserve"
   class="st3"
   version="1.1"
   id="svg35"
   sodipodi:docname="Kubernetes GitOps.svg"
   style="font-size:12px;overflow:visible;color-interpolation-filters:sRGB;fill:none;fill-rule:evenodd;stroke-linecap:square;stroke-miterlimit:3"
   inkscape:version="0.92.5 (2060ec1f9f, 2020-04-08)"><metadata
   id="metadata39"><rdf:RDF><cc:Work
       rdf:about=""><dc:format>image/svg+xml</dc:format><dc:type
         rdf:resource="http://purl.org/dc/dcmitype/StillImage" /></cc:Work></rdf:RDF></metadata><sodipodi:namedview
   pagecolor="#ffffff"
   bordercolor="#666666"
   borderopacity="1"
   objecttolerance="10"
   gridtolerance="10"
   guidetolerance="10"
   inkscape:pageopacity="0"
   inkscape:pageshadow="2"
   inkscape:window-width="640"
   inkscape:window-height="480"
   id="namedview37"
   showgrid="false"
   inkscape:zoom="1.4518774"
   inkscape:cx="37.967295"
   inkscape:cy="35.934452"
   inkscape:window-x="0"
   inkscape:window-y="0"
   inkscape:window-maximized="0"
   inkscape:current-layer="svg35" />
	<style
   type="text/css"
   id="style2">
	<![CDATA[
		.st1 {fill:url(#grad0-6);stroke:none;stroke-linecap:butt;stroke-width:34}
		.st2 {fill:url(#grad0-10);stroke:none;stroke-linecap:butt;stroke-width:34}
		.st3 {fill:none;fill-rule:evenodd;font-size:12px;overflow:visible;stroke-linecap:square;stroke-miterlimit:3}
	]]>
	</style>

	<defs
   id="Patterns_And_Gradients">
		<linearGradient
   id="grad0-6"
   x1="-0.13408537"
   y1="42.44536"
   x2="33.455023"
   y2="42.44536"
   gradientTransform="scale(0.62369303,1.6033529)"
   gradientUnits="userSpaceOnUse">
			<stop
   offset="0"
   stop-color="#a67af4"
   stop-opacity="1"
   id="stop4" />
			<stop
   offset="1"
   stop-color="#773adc"
   stop-opacity="1"
   id="stop6" />
		</linearGradient>
		<linearGradient
   id="grad0-10"
   x1="-0.0035009832"
   y1="54.843786"
   x2="40.960995"
   y2="54.843786"
   gradientTransform="scale(0.77539945,1.2896579)"
   gradientUnits="userSpaceOnUse">
			<stop
   offset="0"
   stop-color="#5ea0ef"
   stop-opacity="1"
   id="stop9" />
			<stop
   offset="1"
   stop-color="#0078d4"
   stop-opacity="1"
   id="stop11" />
		</linearGradient>
	</defs>
	<g
   id="g33"
   transform="translate(-33.986872,-34.002678)">
		<title
   id="title15">Page-1</title>
		<g
   id="group11317-1"
   transform="translate(34.0705,-34.0526)">
			<title
   id="title17">Kubernetes GitOps.11317</title>
			<g
   id="group11318-2">
				<title
   id="title19">Sheet.11318</title>
				<g
   id="shape11319-3">
					<title
   id="title21">Sheet.11319</title>
					<path
   d="M 12.8,101.34 V 88.66 a 10.4541,10.4432 -180 1 0 -4.82,0 v 12.68 a 10.432,10.4211 -180 0 0 2.41,20.57 10.1727,10.1622 -180 0 0 1.07,-0.06 10.432,10.4211 -180 0 0 1.34,-20.52 z m -2.41,4.24 a 5.85138,5.8453 0 0 1 5.85,5.83 5.85138,5.8453 0 1 1 -5.86,-5.84 z M 4.55,78.56 a 5.85138,5.8453 0 0 1 5.84,-5.86 5.85454,5.84846 0 1 1 -5.84,5.86 z"
   class="st1"
   id="path23"
   inkscape:connector-curvature="0"
   style="fill:url(#grad0-6);stroke:none;stroke-width:34;stroke-linecap:butt" />
				</g>
				<g
   id="shape11320-7"
   transform="translate(25.0884,-1.60082)">
					<title
   id="title26">Sheet.11320</title>
					<path
   d="m 31.59,111.17 a 10.6216,10.6106 -180 0 0 -8.34,-8.51 V 80.01 a 2.41516,2.41265 -180 0 0 -2.41,-2.4 h -9.9 V 72.24 A 1.48576,1.48422 -180 0 0 9.47,70.73 1.45099,1.44948 -180 0 0 8.4,71.17 l -7.95,7.96 a 1.73866,1.73685 -180 0 0 0.03,2.37 l 7.91,7.93 a 1.46996,1.46843 -180 0 0 1.04,0.45 1.55531,1.55369 -180 0 0 1.06,-0.43 1.47944,1.4779 -180 0 0 0.44,-1.06 v -5.97 h 7.54 v 20.39 a 10.5647,10.5537 -180 1 0 13.13,8.36 z m -4.45,1.67 a 5.84822,5.84214 0 1 1 -5.85,-5.83 5.85454,5.84846 0 0 1 5.85,5.83 z"
   class="st2"
   id="path28"
   inkscape:connector-curvature="0"
   style="fill:url(#grad0-10);stroke:none;stroke-width:34;stroke-linecap:butt" />
				</g>
			</g>
		</g>
	</g>
</svg>

<?xml version="1.0" encoding="UTF-8" standalone="no"?>
<!DOCTYPE svg PUBLIC "-//W3C//DTD SVG 1.1//EN" "http://www.w3.org/Graphics/SVG/1.1/DTD/svg11.dtd">
<!-- Generated by Microsoft Visio, SVG Export Kubernetes GitOps.svg Page-1 -->
<svg xmlns="http://www.w3.org/2000/svg" xmlns:xlink="http://www.w3.org/1999/xlink" xmlns:ev="http://www.w3.org/2001/xml-events"
		width="1.73506in" height="1.69321in" viewBox="0 0 124.925 121.911" xml:space="preserve" color-interpolation-filters="sRGB"
		class="st3">
	<style type="text/css">
	<![CDATA[
		.st1 {fill:url(#grad0-6);stroke:none;stroke-linecap:butt;stroke-width:34}
		.st2 {fill:url(#grad0-10);stroke:none;stroke-linecap:butt;stroke-width:34}
		.st3 {fill:none;fill-rule:evenodd;font-size:12px;overflow:visible;stroke-linecap:square;stroke-miterlimit:3}
	]]>
	</style>

	<defs id="Patterns_And_Gradients">
		<linearGradient id="grad0-6" x1="0" y1="0" x2="1" y2="0" gradientTransform="rotate(90 0.5 0.5)">
			<stop offset="0" stop-color="#a67af4" stop-opacity="1"/>
			<stop offset="1" stop-color="#773adc" stop-opacity="1"/>
		</linearGradient>
		<linearGradient id="grad0-10" x1="0" y1="0" x2="1" y2="0" gradientTransform="rotate(90 0.5 0.5)">
			<stop offset="0" stop-color="#5ea0ef" stop-opacity="1"/>
			<stop offset="1" stop-color="#0078d4" stop-opacity="1"/>
		</linearGradient>
	</defs>
	<g>
		<title>Page-1</title>
		<g id="group11071-1" transform="translate(34.0705,-34.0526)">
			<title>Kubernetes GitOps.11071</title>
			<g id="group11072-2">
				<title>Sheet.11072</title>
				<g id="shape11073-3">
					<title>Sheet.11073</title>
					<path d="M12.8 101.34 L12.8 88.66 A10.4541 10.4432 -180 1 0 7.98 88.66 L7.98 101.34 A10.432 10.4211 -180 0 0
								 10.39 121.91 A10.1727 10.1622 -180 0 0 11.46 121.85 A10.432 10.4211 -180 0 0 12.8 101.33 L12.8 101.34
								 ZM10.39 105.58 A5.85138 5.8453 0 0 1 16.24 111.41 A5.85138 5.8453 0 1 1 10.38 105.57 L10.39 105.58
								 ZM4.55 78.56 A5.85138 5.8453 0 0 1 10.39 72.7 A5.85454 5.84846 0 1 1 4.55 78.56 Z" class="st1"/>
				</g>
				<g id="shape11074-7" transform="translate(25.0884,-1.60082)">
					<title>Sheet.11074</title>
					<path d="M31.59 111.17 A10.6216 10.6106 -180 0 0 23.25 102.66 L23.25 80.01 A2.41516 2.41265 -180 0 0 20.84 77.61
								 L10.94 77.61 L10.94 72.24 A1.48576 1.48422 -180 0 0 9.47 70.73 A1.45099 1.44948 -180 0 0 8.4 71.17
								 L0.45 79.13 A1.73866 1.73685 -180 0 0 0.48 81.5 L8.39 89.43 A1.46996 1.46843 -180 0 0 9.43 89.88
								 A1.55531 1.55369 -180 0 0 10.49 89.45 A1.47944 1.4779 -180 0 0 10.93 88.39 L10.93 82.42 L18.47 82.42
								 L18.47 102.81 A10.5647 10.5537 -180 1 0 31.6 111.17 L31.59 111.17 ZM27.14 112.84 A5.84822 5.84214
								 0 1 1 21.29 107.01 A5.85454 5.84846 0 0 1 27.14 112.84 Z" class="st2"/>
				</g>
			</g>
		</g>
	</g>
</svg>
